X:1
T:Lannigan's Ball
M:6/8
L:1/8
R:jig
K:D
EFE G2A|B2A Bcd|DED F2G|ABA AFD|EFE G2A|B2A Bcd|edB ËA|1 BGE E2D:|2 BG
E
 E3||
|:e2f gfg|fag fed|e2f gfe|fdB B2d|e2f gfg|eag fed|edB ËA|1 BGE E3:|2 B
GE
 E2D||
